digitransit-component/packages/digitransit-component-icon/src/assets/car-park.svg

<svg id="icon-icon_car-park" viewBox="0 0 36 36" fill="none">
	<path d="M0 4.5C0 2.01472 2.01472 0 4.5 0H31.5C33.9853 0 36 2.01472 36 4.5V31.5C36 33.9853 33.9853 36 31.5 36H4.5C2.01472 36 0 33.9853 0 31.5V4.5Z" fill="#007AC9"/>
	<path d="M4.5 20.9514C4.5 21.3853 4.64903 21.7519 4.94709 22.0511C5.24515 22.3504 5.61955 22.5 6.07027 22.5C6.49192 22.5 6.85178 22.3466 7.14984 22.0399C7.4479 21.7332 7.59693 21.3703 7.59693 20.9514V16.6197H11.021C13.042 16.6197 14.7104 16.0848 16.0263 15.015C17.301 13.9786 17.9582 12.5385 17.9981 10.6947L18 10.4701C18 8.65959 17.4039 7.21198 16.2116 6.12718C15.0194 5.04239 13.4128 4.5 11.3918 4.5H6.07027C5.61955 4.5 5.24515 4.65337 4.94709 4.9601C4.64903 5.26683 4.5 5.64464 4.5 6.09352V20.9514ZM7.59693 13.8142V7.39526H11.1082C12.2714 7.39526 13.191 7.66085 13.8671 8.19202C14.5138 8.7001 14.8512 9.44432 14.8793 10.4247L14.8813 10.6047C14.8813 11.5474 14.5432 12.318 13.8671 12.9165C13.191 13.515 12.2714 13.8142 11.1082 13.8142H7.59693Z" fill="white"/>
	<path d="M31.6631 22.2319C31.6312 21.7538 31.1212 21.4031 30.6112 21.435L28.9537 21.7538L27.8062 19.7138C27.3281 18.8213 26.9456 18.4069 25.7981 18.2156C24.5549 18.0563 23.535 17.9288 21.7499 17.9288C19.9331 17.9288 19.0087 18.0563 17.7656 18.2156C16.6181 18.4069 16.2356 18.8213 15.7574 19.7138L14.6099 21.7538L12.9206 21.435C12.3787 21.4031 11.9006 21.7538 11.8687 22.2319C11.8049 22.71 12.1237 23.0925 12.6018 23.22L13.7812 23.5069C12.9524 24.1125 12.6018 25.26 12.6018 26.0569V28.9894C12.6018 29.7544 13.1756 30.4238 14.0681 30.5831V32.2725C14.0681 32.5275 14.2912 32.655 14.5462 32.655H16.2356C16.4587 32.655 16.6818 32.5275 16.6818 32.2725V30.87C18.0524 30.9338 19.8693 31.0613 21.7499 31.0613C23.5987 31.0613 25.4793 30.9338 26.8181 30.87V32.2725C26.8181 32.5275 27.0412 32.655 27.2643 32.655H28.9537C29.2087 32.655 29.4318 32.5275 29.4318 32.2725V30.5831C30.3562 30.4238 30.93 29.7544 30.93 28.9894V26.0569C30.93 25.26 30.6112 24.1125 29.7824 23.5069L30.8981 23.22C31.4081 23.0925 31.7268 22.71 31.6631 22.2319ZM17.7337 26.5988C17.7337 27.045 17.3512 27.3319 16.9049 27.3319H15.1199C14.6737 27.3319 14.2593 27.045 14.2593 26.5988V25.7063L17.7337 26.0569V26.5988ZM16.7774 20.1281C17.0324 19.5863 17.3193 19.3631 17.8931 19.2356C19.0087 19.0125 19.9968 18.9488 21.7499 18.9488C23.5031 18.9488 24.5549 19.0125 25.6706 19.2356C26.2443 19.3631 26.5312 19.5863 26.7862 20.1281L28.2524 23.1244C26.1487 23.4431 23.9812 23.5069 21.8774 23.5069C19.6462 23.5069 17.2237 23.3794 15.3112 23.1244L16.7774 20.1281ZM29.3362 26.5988C29.3362 27.045 28.9218 27.3319 28.4756 27.3319H26.7543C26.3081 27.3319 25.9256 27.045 25.9256 26.5988V26.0569L29.3362 25.7063V26.5988Z" fill="white"/>
</svg>

<svg fill="none" viewBox="0 0 36 36">
 <path fill="#007ac9" d="M0 4.5A4.5 4.5 0 0 1 4.5 0h27A4.5 4.5 0 0 1 36 4.5v27a4.5 4.5 0 0 1-4.5 4.5h-27A4.5 4.5 0 0 1 0 31.5z"/>
 <path fill="#fff" d="M4.5 20.951q0 .65.447 1.1t1.123.449a1.45 1.45 0 0 0 1.08-.46 1.5 1.5 0 0 0 .447-1.089V16.62h3.424q3.032 0 5.005-1.605 1.912-1.554 1.972-4.32L18 10.47q0-2.715-1.788-4.343-1.79-1.627-4.82-1.627H6.07a1.5 1.5 0 0 0-1.123.46A1.56 1.56 0 0 0 4.5 6.094zm3.097-7.137V7.395h3.511q1.744 0 2.76.797.969.762 1.011 2.233l.002.18q0 1.413-1.014 2.311t-2.759.898zM31.663 22.232c-.032-.478-.542-.829-1.052-.797l-1.657.319-1.148-2.04c-.478-.893-.86-1.307-2.008-1.498-1.243-.16-2.263-.287-4.048-.287-1.817 0-2.741.127-3.984.287-1.148.19-1.53.605-2.009 1.498l-1.147 2.04-1.69-.319c-.541-.032-1.02.319-1.051.797-.064.478.255.86.733.988l1.18.287c-.83.605-1.18 1.753-1.18 2.55v2.932c0 .765.574 1.435 1.466 1.594v1.69c0 .255.223.382.478.382h1.69c.223 0 .446-.127.446-.383V30.87c1.37.064 3.187.191 5.068.191 1.849 0 3.73-.127 5.068-.191v1.402c0 .256.223.383.446.383h1.69c.255 0 .478-.127.478-.383v-1.689c.924-.16 1.498-.829 1.498-1.594v-2.932c0-.797-.319-1.944-1.148-2.55l1.116-.287c.51-.127.829-.51.765-.988m-13.93 4.367c0 .446-.382.733-.828.733H15.12c-.446 0-.86-.287-.86-.733v-.893l3.474.35zm-.956-6.47c.255-.543.542-.766 1.116-.893 1.116-.224 2.104-.287 3.857-.287s2.805.063 3.92.287c.574.127.861.35 1.116.892l1.466 2.996c-2.103.32-4.27.383-6.375.383-2.23 0-4.653-.128-6.566-.383zm12.56 6.47c0 .446-.415.733-.861.733h-1.722c-.446 0-.828-.287-.828-.733v-.542l3.41-.35z"/>
</svg>
